svgs/thin/arrows-repeat.svg

<svg xmlns="http://www.w3.org/2000/svg" viewBox="0 0 512 512"><!-- Font Awesome Pro 6.0.0-alpha2 by @fontawesome - https://fontawesome.com License - https://fontawesome.com/license (Commercial License) --><path d="M419.428 103.997L338.594 178.091C335.344 181.091 335.109 186.154 338.109 189.404C339.688 191.123 341.844 191.998 344 191.998C345.938 191.998 347.875 191.31 349.406 189.904L445.406 101.903C447.062 100.372 448 98.247 448 95.997S447.062 91.622 445.406 90.091L349.406 2.09C346.188 -0.879 341.125 -0.66 338.109 2.59C335.109 5.84 335.344 10.902 338.594 13.902L419.428 87.997H168C75.359 87.997 0 163.372 0 255.998C0 260.404 3.578 263.998 8 263.998S16 260.404 16 255.998C16 172.185 84.188 103.997 168 103.997H419.428ZM504 247.998C499.578 247.998 496 251.592 496 255.998C496 339.811 427.812 407.999 344 407.999H92.572L173.406 333.905C176.656 330.905 176.891 325.842 173.891 322.592C170.906 319.342 165.844 319.124 162.594 322.092L66.594 410.093C64.938 411.624 64 413.749 64 415.999C64 418.249 64.938 420.374 66.594 421.906L162.594 509.906C164.125 511.312 166.062 512 168 512C170.156 512 172.312 511.125 173.891 509.406C176.891 506.156 176.656 501.094 173.406 498.094L92.572 423.999H344C436.641 423.999 512 348.624 512 255.998C512 251.592 508.422 247.998 504 247.998Z"/></svg>

<svg xmlns="http://www.w3.org/2000/svg" viewBox="0 0 512 512"><!--! Font Awesome Pro 6.4.0 by @fontawesome - https://fontawesome.com License - https://fontawesome.com/license (Commercial License) Copyright 2023 Fonticons, Inc. --><path d="M0 264c0 4.4 3.6 8 8 8s8-3.6 8-8v-8c0-83.9 68.1-152 152-152H419.4l-80.8 74.1c-3.3 3-3.5 8-.5 11.3s8 3.5 11.3 .5l96-88c1.7-1.5 2.6-3.7 2.6-5.9s-.9-4.4-2.6-5.9l-96-88c-3.3-3-8.3-2.8-11.3 .5s-2.8 8.3 .5 11.3L419.4 88H168C75.2 88 0 163.2 0 256v8zm512-16c0-4.4-3.6-8-8-8s-8 3.6-8 8v8c0 83.9-68.1 152-152 152H92.6l80.8-74.1c3.3-3 3.5-8 .5-11.3s-8-3.5-11.3-.5l-96 88c-1.7 1.5-2.6 3.7-2.6 5.9s.9 4.4 2.6 5.9l96 88c3.3 3 8.3 2.8 11.3-.5s2.8-8.3-.5-11.3L92.6 424H344c92.8 0 168-75.2 168-168v-8z"/></svg>
